X: 18737
T: Idbury Hill
R: polka
M: 2/4
K: Edorian
|:B B/c/ d > B|A/G/F/E/ D E/F/|G B B/A/G/F/|E2 E2:|
|:B B/c/ d B|e/d/c/B/ A2|B B/c/ d B|e > d B2|
B B/c/ d > B|A/G/F/E/ D E/F/|G B B/A/G/F/|E2 E2:|

